packages/bpk-svgs/src/icons/sm/account-circle.svg

<svg viewBox="0 0 24 24" fill="none" xmlns="http://www.w3.org/2000/svg">
<path d="M12 22.5C6.20101 22.5 1.5 17.799 1.5 12C1.5 6.20101 6.20101 1.5 12 1.5C17.799 1.5 22.5 6.20101 22.5 12C22.5 17.799 17.799 22.5 12 22.5ZM14.25 6.63106C14.25 5.86778 13.647 5.25 12.9045 5.25H11.0955C10.353 5.25 9.75 5.86778 9.75 6.63106V8.94053C9.75 10.2154 10.758 11.25 12 11.25C13.242 11.25 14.25 10.2154 14.25 8.94053V6.63106ZM6.20907 16.4753C7.47841 18.3027 9.5988 19.5 12.0002 19.5C14.4013 19.5 16.5214 18.303 17.7908 16.4761C18.2168 15.8631 17.9635 15.0411 17.2907 14.7137C15.6932 13.9363 13.8975 13.5 11.9994 13.5C10.1018 13.5 8.30659 13.9361 6.70943 14.713C6.03658 15.0404 5.78322 15.8623 6.20907 16.4753Z" fill="#111236"/>
</svg>

<svg xmlns="http://www.w3.org/2000/svg" viewBox="0 0 24 24"><path d="M12 22.5C6.201 22.5 1.5 17.799 1.5 12S6.201 1.5 12 1.5 22.5 6.201 22.5 12 17.799 22.5 12 22.5zm2.25-15.869c0-.763-.603-1.381-1.345-1.381h-1.81c-.742 0-1.345.618-1.345 1.381v2.31c0 1.274 1.008 2.309 2.25 2.309s2.25-1.035 2.25-2.31V6.632zm-8.04 9.844A7.037 7.037 0 0 0 12 19.5a7.037 7.037 0 0 0 5.79-3.024c.427-.613.174-1.435-.5-1.762A12.06 12.06 0 0 0 12 13.5c-1.898 0-3.693.436-5.29 1.213-.673.327-.927 1.15-.5 1.762z"/></svg>
